public/BrandsectionBG.svg

<svg width="1920" height="417" viewBox="0 0 1920 417" fill="none" xmlns="http://www.w3.org/2000/svg">
<g clip-path="url(#clip0_215_114)">
<rect y="-3.00098" width="1920" height="420" fill="url(#paint0_linear_215_114)"/>
<g style="mix-blend-mode:color-dodge">
<path fill-rule="evenodd" clip-rule="evenodd" d="M2001.62 287.668L1964.92 290.775C1928.22 293.882 1853.15 300.236 1773.82 236.356C1692.81 172.616 1607.55 38.6413 1530.78 24.9692C1455.69 11.1559 1389.1 117.645 1318.24 153.899C1247.38 190.153 1168.92 156.454 1092.98 132.627C1015.37 108.942 940.272 95.1286 866.051 111.497C793.498 127.724 721.821 174.133 648.42 180.346C575.02 186.56 496.561 152.861 424.009 169.088C349.788 185.456 281.474 251.751 205.557 248.092C131.309 244.292 49.4598 170.539 9.36892 133.592L-30.7218 96.6449L-101 -733.539C566.275 -790.026 1234.08 -840.258 1901.35 -896.745L2001.62 287.668Z" fill="url(#paint1_linear_215_114)" fill-opacity="0.14"/>
<path fill-rule="evenodd" clip-rule="evenodd" d="M2001.62 287.668L1964.92 290.775C1928.22 293.882 1853.15 300.236 1773.82 236.356C1692.81 172.616 1607.55 38.6413 1530.78 24.9692C1455.69 11.1559 1389.1 117.645 1318.24 153.899C1247.38 190.153 1168.92 156.454 1092.98 132.627C1015.37 108.942 940.272 95.1286 866.051 111.497C793.498 127.724 721.821 174.133 648.42 180.346C575.02 186.56 496.561 152.861 424.009 169.088C349.788 185.456 281.474 251.751 205.557 248.092C131.309 244.292 49.4598 170.539 9.36892 133.592L-30.7218 96.6449L-101 -733.539C566.275 -790.026 1234.08 -840.258 1901.35 -896.745L2001.62 287.668Z" stroke="black"/>
</g>
</g>
<defs>
<linearGradient id="paint0_linear_215_114" x1="-122" y1="-394.001" x2="2062" y2="1054" gradientUnits="userSpaceOnUse">
<stop stop-color="#03E6F4"/>
<stop offset="1" stop-color="#00339B"/>
</linearGradient>
<linearGradient id="paint1_linear_215_114" x1="1000.71" y1="372.399" x2="899.912" y2="-818.27" gradientUnits="userSpaceOnUse">
<stop stop-color="#1097CD"/>
<stop offset="1" stop-color="#00339B"/>
</linearGradient>
<clipPath id="clip0_215_114">
<rect width="1920" height="417" fill="white"/>
</clipPath>
</defs>
</svg>

<svg xmlns="http://www.w3.org/2000/svg" width="1920" height="417" fill="none"><g clip-path="url(#a)"><path fill="url(#b)" d="M0-3.001h1920v420H0z"/><g clip-rule="evenodd" style="mix-blend-mode:color-dodge"><path fill="url(#c)" fill-opacity=".14" fill-rule="evenodd" d="m2001.62 287.668-36.7 3.107c-36.7 3.107-111.77 9.461-191.1-54.419-81.01-63.74-166.27-197.715-243.04-211.387-75.09-13.813-141.68 92.676-212.54 128.93-70.86 36.254-149.32 2.555-225.26-21.272-77.61-23.685-152.708-37.498-226.929-21.13-72.553 16.227-144.23 62.636-217.631 68.849-73.4 6.214-151.859-27.485-224.411-11.258-74.221 16.368-142.535 82.663-218.452 79.004-74.248-3.8-156.097-77.553-196.188-114.5l-40.09-36.947L-101-733.54c667.275-56.487 1335.08-106.719 2002.35-163.206l100.27 1184.413Z"/><path stroke="#000" d="m2001.62 287.668-36.7 3.107c-36.7 3.107-111.77 9.461-191.1-54.419-81.01-63.74-166.27-197.715-243.04-211.387-75.09-13.813-141.68 92.676-212.54 128.93-70.86 36.254-149.32 2.555-225.26-21.272-77.61-23.685-152.708-37.498-226.929-21.13-72.553 16.227-144.23 62.636-217.631 68.849-73.4 6.214-151.859-27.485-224.411-11.258-74.221 16.368-142.535 82.663-218.452 79.004-74.248-3.8-156.097-77.553-196.188-114.5l-40.09-36.947L-101-733.54c667.275-56.487 1335.08-106.719 2002.35-163.206l100.27 1184.413Z"/></g></g><defs><linearGradient id="b" x1="-122" x2="2062" y1="-394.001" y2="1054" gradientUnits="userSpaceOnUse"><stop stop-color="#03E6F4"/><stop offset="1" stop-color="#00339B"/></linearGradient><linearGradient id="c" x1="1000.71" x2="899.912" y1="372.399" y2="-818.27" gradientUnits="userSpaceOnUse"><stop stop-color="#1097CD"/><stop offset="1" stop-color="#00339B"/></linearGradient><clipPath id="a"><path fill="#fff" d="M0 0h1920v417H0z"/></clipPath></defs></svg>
